X:1
T:Regina caeli - Witt
T:#
%%score [ 1 2 3 4 ]
L:1/8
Q:1/4=120
M:4/4
K:C
V:1 treble nm="Soprano" snm="S"
V:2 treble nm="Alto" snm="A"
V:3 treble-8 nm="Tenor" snm="T"
V:4 bass nm="Bass" snm="B"
V:1
"^Franz Xaver Witt\n(1834-1888)" z2!ff! G2 G2 G2 | c4 G2 G2 |"^Regina caeli" (A4 d4) | %3
w: Re- gi- na|cae- li lae-|ta\- *|
 B4 z2!f! B2 | (B4 G3) B | c4 c2 c2 | (dedc BcBA | G6 c2) | B2!<(! BB (BAG!<)!A) | B2 BB (ABcd) | %10
w: re, Re-|gi\- * na|cae- li lae-|ta\- * * * * * * *||re. Al- le lu\- * * *|ja, al- le- lu\- * * *|
!>(! c2 cc (c2 B!>)!A | B4) c4 | z8 | z8 | z8 | z2!mf! G2 c2 d2 | e3 e d4 | c2 B2 c4 | d4 c2 (BA | %19
w: ja, al- le- lu\- * *|* ja.||||Qui- a quem|me- ru- i-|sti por- ta-|re, por- ta\- *|
!>(! B8)!>)! | c4 z4 | z2!f! Bc d4 |!>(! d4 dd d2!>)! | d2 DD (d3 c | BcBA GAGF | E2) D2 z4 | %26
w: |re.|Al- le- lu-|ja, al- le- lu-|ja. Re- sur- re\- *||* xit|
 z4 CC (c2- | c B/A/ B2) c2!ff! cA | (d^cBc) d2 d=c | (cBAB)!>(! c2 cc | (B c2 B)!>)! c4 | z8 | %32
w: si- cut di\-|* * * * xit. Al- le-|lu\- * * * ja, al- le-|lu\- * * * ja, al- le-|lu\- * * ja.||
 z8 | z4!mp! BB d2 | c2 B2 (c3 B) | A6!<(! B2 | c2 G4!<)! ^F2 | (G3 A B4) |!f! B4 G3 B | c4 c2 c2 | %40
w: |O- ra pro|no- bis De\- *|um, pro|no- bis De-|um. * *|Al- le- lu-|ja, al- le-|
 (dedc BcBA | G4 c4) | B2 BB (BAGA) | B4 z4 | c2 c2 (c2 BA | B4) c4 | %46
w: lu\- * * * * * * *||ja, al- le- lu\- * * *|ja,|al- le- lu\- * *|* ja,|
!ff![Q:1/4=118] c4[Q:1/4=114] c4 |[Q:1/4=108] c8 | %48
w: al- le-|lu-|
[Q:1/4=104]!>(! (c2[Q:1/4=103] B[Q:1/4=102]A[Q:1/4=102] G4)!>)! |] %49
w: ja. * * *|
V:2
 z2!ff! E2 E2 E2 | G4 E2 E2 | (F4 A4) | G4 z4 | z8 |!f! G4 A2 A2 | (BcBA GAGF | EFED EFGA) | %8
w: Re- gi- na|cae- li lae-|ta\- *|re,||cae- li lae-|ta\- * * * * * * *||
 B2!<(! GG (G^FE!<)!F) | G4 z4 |!>(! c3 c (A4!>)! | G4) E4 | z4 z2!mf! C2 | F2 G2 A2 G2 | %14
w: re. Al- le- lu\- * * *|ja,|al- le- lu\-|* ja.|Qui-|a quem me- ru-|
 A2 B2 c2 A2 | (G3 F E2 D2 | C2 c4 B2) | A2 G2 (c2 A2) | A4 A2 (A2- |!>(! A2 ^G^F G4)!>)! | %20
w: i- sti, me- ru-|i\- * * *||sti por- ta\- *|re, por- ta\-||
 A2!f! cB A4 | [Gc]2 GG (BAGA) |!>(! B2 BB A4!>)! | B4 z4 | z4 z2!f! CC | (c2 Bc BA G2- | %26
w: re. Al- le- lu-|ja, al- le- lu\- * * *|ja, al- le- lu-|ja.|Re- sur-|re\- * * * * *|
 GAGF) G2 GG | G4 G2!ff! GF | A4 A4 | z4!>(! G3 F | (D G2 F)!>)! E4 |!mp! c4 B2 A2 | %32
w: * * * * xit si- cut|di- xit. Al- le-|lu- ja,|al- le-|lu\- * * ja.|O- ra pro|
 G2 F2 (G2 AB) | c4 z4 | z8 | z2 F2!<(! F4 | G3 z (E2!<)! DC | D4 G4 | z8 |!f! G4 A4 | (BcBA GAGF | %41
w: no- bis De\- * *|um,||pro no-|bis De\- * *|* um.||Al- le-|lu\- * * * * * * *|
 EFED EFGA) | B2 GG G^FEF) | G2 BB (ABcd) | c2 cc (A4 | G4) E4 |!ff! c4 c4 | A8 | %48
w: |ja, al- le- lu\- * * *|a, al- le- lu\- * * *|ja, al- le- lu\-|* ja,|al- le-|lu-|
!>(! (G3 A c4)!>)! |] %49
w: ja. * *|
V:3
 z2!ff! c2 c2 c2 | e4 c2 c2 | (c4 f4) | d4 z2!f! d2 | (d4 c3) d | e4 (ede^f | g4) g4 | (gagf e4) | %8
w: Re- gi- na|cae- li lae-|ta\- *|re, Re-|gi\- * na|cae- li * * *|* lae-|ta\- * * * *|
 d2!<(! dd d4!<)! | d2 de f4 |!>(! e2 ee d4-!>)! | d4 c2!mf! G2 | c2 d2 e3 e | d4 c2 e2 | %14
w: re. Al- le- lu-|ja, al- le- lu-|ja, al- le- lu\-|* ja. Qui-|a quem me- ru-|i- sti por-|
 (f2 ed c4) | c4 z4 | z4 z2 G2 | c2 d2 e3 e | f4 e2 d2 |!>(! e8!>)! | e2!f! ee (edcd) | %21
w: ta\- * * *|re,|qui-|a quem me- ru-|i- sti por-|ta-|re. Al- le- lu\- * * *|
 e2 ee (g^fef) |!>(! g2 gg (g^f/e/ f2)!>)! | g4 z2!f! GG | (g3 f efed | c2 de dcBA) | B2 cd (e4 | %27
w: ja, al- le- lu\- * * *|ja, al- le- lu\- * * *|ja. Re- sur-|re\- * * * * *||xit si- cut di\-|
 d4) e2!ff! ed | (fede) f2 fe | (edcd)!>(! e2 ec | d4!>)! c4 |!mp! e4 d2 f2 | e2 d2 (e3 d) | %33
w: * xit. Al- le-|lu\- * * * ja, al- le-|lu\- * * * ja, al- le-|lu- ja.|O- ra pro|no- bis De\- *|
 [Ec]4 z4 | z8 | z2 c2!<(! f4 | e4!<)! c4 | B4 z2!f! d2 | d4 (c3 d) | e4 (ede^f | g8) | %41
w: um,||pro no-|bis De-|um. Al-|le- lu\- *|ja, al\- * * *||
 (gagf e2) e2 | d2 ee d4 | d2 de f4 | e2 ee d4- | d4 c4 |!ff! c4 c4 | f8 |!>(! e8!>)! |] %49
w: le\- * * * * lu-|ja, al- le- lu-|ja, al- le- lu-|ja, al- le- lu\-|* ja,|al- le-|lu-|ja.|
V:4
 z2!ff! C,2 C,2 C,2 | C,4 C,2 C,2 | (F,4 D,4) | G,4 z2!f! G,2 |"^5" (G,A,G,F,) (E,F,E,D,) | %5
w: Re- gi- na|cae- li lae-|ta\- *|re, Re-|gi\- * * * na * * *|
 (C,D,C,B,, A,,4) | G,,4 G,,4 | (C,4 C,D,E,F,) | G,2!<(! G,G, D,4!<)! | G,2 G,G, (F,G,A,B,) | %10
w: cae\- * * * *|li lae-|ta\- * * * *|re. Al- le- lu-|ja, al- le- lu\- * * *|
!>(! C2 B,B, (F,4!>)! | G,2 G,,2) C,4 | z8 | z4 z2!mf! C,2 | F,2 G,2 A,2 F,2 | (E,3 D, C,2 B,,2 | %16
w: ja, al- le- lu\-|* * ja.||Qui-|a quem me- ru-|i\- * * *|
 A,,2 C,2) G,,4 | z4 z2 A,2 | D,4 A,2 F,2 |!>(! E,8!>)! | A,,2!f! A,G, F,4 | C,2 E,E, D,4 | %22
w: * * sti|por-|ta- re, por-|ta-|re. Al- le- lu-|ja, al- le- lu-|
!>(! G,2 G,G, D,4!>)! | G,,4 z4 | z8 | z2!f! G,,G,, (G,3 F, | E,F,E,D,) C,2 C,C, | %27
w: ja, al- le- lu-|ja.||Re- sur- re\- *|* * * * xit si- cut|
 G,,4 C,2!ff! C,D, | A,,4 D,2 D,D, | G,4!>(! C,2 C,A,, | G,,4!>)! C,4 | z8 | z8 | z4!mp! G,G, F,2 | %34
w: di- xit. Al- le-|lu- ja, al- le-|lu- ja, al- le-|lu- ja.|||O- ra pro|
 E,2 G,2 (A,3 G,) | F,4!<(! D,4 | C,2 B,,2!<)! A,,4 | G,,4 z2!f! G,2 | (G,A,G,F, E,F,E,D, | %39
w: no- bis De\- *|um, pro|no- bis De-|um. Al-|le\- * * * * * * *|
 C,D,C,B,, A,,4 | G,,8) | C,4 (C,D,E,F, | G,2) G,G, D,4 | G,2 G,G, (F,G,A,B,) | C2 A, A, (F,4 | %45
w: ||lu- ja, * * *|* al- le- lu-|ja, al- le- lu\- * * *|ja, al- le- lu\-|
 G,2 G,,2) C,4 |!ff! C4 C4 | F,8 |!>(! C,8!>)! |] %49
w: * * ja,|al- le-|lu-|ja.|

